!!!COM: Georges Bizet
!!!CNT: Francais
!!!TXO: Francais
!!!OTL: Le Grillon
!!!LYR: Lamartine
!!!OPR: Feuilles d'Album
!!!ONM: No. 6
!!!ENC: Jacob Pegg
!!!YOR: Romantic French Song 1830-1870 -David Tunley, ed.,
!!!YOR: New York: Garland Publishing, Inc., 1995, Vol. 4
!!!ODT: 1866/
!!NB: Vocal melody and text only encoded.
!!NB: First instance of melodic material only encoded.
**kern	**silbe
*clef G2	*
*k[b-e-a-]	*
*M3/8	*
!!created: 5/13/03 23:29
!!proofed and posted: 5/14/03 9:22
!!edit time: 106 min.
=20	=20
4r	.
{8b-	{Gril-
=21	=21
8b-	-lon,
8cc	so-
8dd	-li-
=22	=22
(64ffq	-tai-
16ee-	|
16dd)}	-re}
{(16ee-	{I-
16ff)	|
8ee-	-ci
=23	=23
(64ee-q	Com-
16dd	|
16cc)	|
(16dd	-me
16ee-)	|
8dd}	moi,}
=24	=24
(64ccq	.
{16b-	{Voix
16an	|
16b-	|
16cc)	|
8b-	qui
=25	=25
8f	sort
4b-	de
=26	=26
8e-}	terre,}
{4b-	{Ah!
=27	=27
8c	re/-
8d	-veil-
8e-	-le~
=28	=28
[8f	~toi!
16f]}	|}
16r	.
8r	.
!!mm29-31 repeat
=32	=32
16r	.
16r	.
{(16b-	{Et
16cc)	|
8b-	que
=33	=33
8g	Mar-
4cc	-gue-
=34	=34
8g	-ri-
8dd}	-te}
{8d	{Fi-
=35	=35
8d	-lait
8en	son
8f#	fu-
=36	=36
[8g	-seau;
16g]}	|}
16r	.
{8g	{Quand
=37	=37
8g	le
8f#	vent
8g	d'au-
=38	=38
(64b-q	-tom-
16a-	|
16g)	|
(16a-	-ne
16b-)}	|}
{8a-	{Fai-
=39	=39
8ee-	-sait
8dd	tout
8cc	ge/-
=40	=40
(64ee-q	-mir,
16dd	|
16cc#	|
16dd	|
16b-)}	|}
8r	.
!!mm41-44 repeat of prior 4 measures. 
=45	=45
{16g	{Ah!
16r	.
[8gg	ah!
16gg]	|
16r	.
=46	=46
16g-	ah!
16r	.
[8gg-	ah!
16gg-]	|
16r	.
=47	=47
(8f	ah!
16ff)}	|}
16r	.
{8b-	{Gril-
=48	=48
8b-	-lon
8cc	so-
8dd	-li-
=49	=49
(64ffq	-tai-
16ee-	|
16dd)	|
(16ee-	-re,
16ff)}	|}
{8ee-	{Voix
=50	=50
8dd	qui
8cc	sors
8b-	de
=51	=51
(64aa-q	ter-
16gg	|
16ff#	|
16gg	|
16aa-)	|
16gg}	-re,}
16r	.
=52	=52
(64ffnq	.
{16ee-	{Ah!
16dd	|
16ee-	|
16ffn	|
16ee-)	|
16r	.
=53	=53
(64ccq	ah!
16b-	|
16an	|
16b-	|
16cc	|
16b-)}	|}
16r	.
=54	=54
{8d	{re/-
8cc	-veil-
8b-	-le~
=55	=55
(4a-	~toi
8g)	|
=56	=56
(8g	Pour
8an	|
8bn)	|
=57	=57
(64ddq	moi!
16cc	|
16bn	|
16cc	|
16dd	|
16cc)}	|}
16r	.
=58	=58
{8dd	{re/-
8ee-	-veil-
8ff	-le~
=59	=59
[8aa-	~toi
(16aa-]	|
16gg	|
16ff	|
16ee-)	|
=60	=60
[8ff	|
(16ff]	|
16ee-	|
16dd	|
16cc)	|
=61	=61
(16b-	|
16bb-)	|
16aa-	|
16gg	|
16ff	|
16ee-	|
=62	=62
16dd	|
16cc	|
16b-	|
16a-	|
(16g	Pour
16f)	|
=63	=63
4.e-}	moi!}
!!64-70 rest
!!71-118 identical repeat of A (20-63,) plus rest
=119	=119
4r;	.
{8g	{Qu'il
=120	=120
8g	a
8a-	moins
8g	de
=121	=121
8ee-	char-
8dd}	-mes}
{8cc	{Ton
=122	=122
8bn	chant
8cc	qu'au-
8dd	-tre-
=123	=123
[4.g	-fois!
=124	=124
8g]}	|}
8r	.
8r	.
=125	=125
4r	.
{8g	{As~
=126	=126
8g	~tu
8a-	donc
8g	nos
=127	=127
8ee-	lar-
8dd}	-mes}
{8cc	{Aus-
=128	=128
8bn	-si
8cc	dans
8dd	la
=129	=129
[4.b-	voix?
=130	=130
8b-]}	|}
8r	.
8r	.
=131	=131
4r	.
{8b-	{Pleu-
=132	=132
8b-	-res~
8cc	~tu
8b-	l'a-
=133	=133
8ee-	-i2eu-
8dd}	-le,}
{8cc	{La
=134	=134
8b-	me\re
8an	et
8g	la
=135	=135
4.f#}	soeur?}
=136	=136
4r	.
8r	.
=137	=137
4r	.
{8dd	{Vois,
=138	=138
8gg	je
8ff	peu-
8ee-	-ple
=139	=139
8dd	seu-
8cc	-le
8g	Ce
=140	=140
8b-	fo-
8.an	-yer
16g	du
=141	=141
[4.g	coeur!
=142	=142
8g]}	|}
8r	.
{8dd	{L'a^-
=143	=143
8ee-	-tre
8dd	qui
8cc	pe/-
=144	=144
[8g	-til-
16g]}	-le,}
16r	.
{8an	{Le
=145	=145
8b-	cri
8cc	re-
8b-	-nais-
=146	=146
[8dd	-sant,
16dd]}	|}
16r	.
8r	.
!!mm147-149 repeat
=150	=150
8r	.
16r	.
16r	.
{8dd	{Mon
=151	=151
8ff	a^-
8dd	-me
8cc	s'y
=152	=152
[8b-	plon-
8b-]}	-ge;}
{8cc	{Je
=153	=153
8f	fer-
8b-	-me
8dd	les
=154	=154
[8cc	yeux,
16cc]}	|}
16r	.
{8b-	{Et
=155	=155
8ff	j'en-
8dd	-tends
8cc	en
=156	=156
4b-	son-
16dd}	-ge}
16r	.
=157	=157
{(8cc	{Mes
8b-)	|
8dd	a-
=158	=158
(8cc	-mis
8an)	|
8b-	des
=159	=159
[4.gg	cieux!
=160	=160
4.gg_	|
=161	=161
4.gg_	|
=162	=162
8gg]}	|}
8r	.
8r	.
=163	=163
{[4.bb-	{Ah!
=164	=164
4.bb-_	|
=165	=165
4.bb-_	|
=166	=166
4bb-]}	|}
8r	.
!!mm 167 - 209 repeat of A
=210	=210
8r	.
8r	.
{8g	{L'a^-
=211	=211
8g	-tre
8en	qui
8f	pe/-
=212	=212
[8b-	-til-
16b-]}	-le,}
16r	.
{8b-	{Le
=213	=213
8cc	cri
8an	re-
8b-	-nais-
=214	=214
[8ee-	sant,
16ee-]}	|}
16r	.
{8ff	{Des
=215	=215
8ee-	voix
8dd	de
8b-	fa-
=216	=216
[8ff	-mil-
8ff]}	-le}
{8dd	{M'i-
=217	=217
8gg	-mi-
8ff	-tent
8ee-	l'ac-
=218	=218
[8g	-cent,
16g]}	|}
16r	.
{8a	{Je
=219	=219
(16g	fer-
16f)	|
(16en	-me
16f)	|
(16g	les
16f)	|
=220	=220
[8b-	yeux,
16b-]}	|}
16r	.
{8b-	{Et
=221	=221
(16cc	j'en-
16b-)	|
(16an	-tends
16b-)	|
(16cc	en
16b-)	|
=222	=222
4ee-	son-
8ee-	-ge
=223	=223
(16dd	Mes
16cc	|
16dd	|
16ee-)	|
(16ff	a-
16gg)	|
=224	=224
(8bb-	-mis
8aa-)	|
8dd	des
=225	=225
4.ee-}	cieux.}
=226	=226
4r	.
{8b-	{Gril-
=227	=227
[4ee-	-lon,
16ee-]}	|}
16r	.
=228	=228
{8b-	{re/-
(64ddq	-veil-
8cc)	|
8b-	-le~
=229	=229
[4.gg	~toi!
=230	=230
4.gg_	|
=231	=231
32gg]}	|}
32r	.
{(16d	{ah!
16e)	|
(16f#	|
16g)	|
(16an	|
=232	=232
16b-)	|
(16dd	|
16ee-)	|
(16ff#	|
16gg)	|
(16aan	|
=233	=233
4.bb-T)	|
=234	=234
(4.bb-T	|
16aanq	|
16bb-q	|
=235	=235
8eee-)}	|}
8r	.
8r	.
*-	*-
